assets/images/bakslash.svg

<?xml version="1.0" encoding="utf-8"?>
<svg viewBox="56.531 96.03 395.273 61.522" xmlns="http://www.w3.org/2000/svg">
  <defs>
    <clipPath id="clip0_10_2">
      <rect fill="white" height="98" width="423"/>
    </clipPath>
    <linearGradient gradientUnits="userSpaceOnUse" y2="78.9999" x2="43.1338" y1="17.9999" x1="43.1338" id="paint0_linear_10_2">
      <stop stop-color="#1DFFF1"/>
      <stop stop-color="#860DFF" offset="1"/>
    </linearGradient>
    <linearGradient gradientUnits="userSpaceOnUse" y2="79" x2="43.1333" y1="18" x1="43.1333" id="paint1_linear_10_2">
      <stop stop-color="#1DFFF1"/>
      <stop stop-color="#860DFF" offset="1"/>
    </linearGradient>
  </defs>
  <g clip-path="url(#clip0_10_2)" transform="matrix(1, 0, 0, 1, 43.814571380615234, 78.26056671142578)">
    <path style="fill: rgb(38, 38, 38);" d="M104.912 39.344C105.936 37.68 107.408 36.336 109.328 35.312C111.248 34.288 113.445 33.776 115.92 33.776C118.864 33.776 121.531 34.5227 123.92 36.016C126.309 37.5093 128.187 39.6427 129.552 42.416C130.96 45.1893 131.664 48.4107 131.664 52.08C131.664 55.7493 130.96 58.992 129.552 61.808C128.187 64.5813 126.309 66.736 123.92 68.272C121.531 69.7653 118.864 70.512 115.92 70.512C113.403 70.512 111.205 70.0213 109.328 69.04C107.451 68.016 105.979 66.672 104.912 65.008V70H93.968V22.64H104.912V39.344ZM120.528 52.08C120.528 49.3493 119.76 47.216 118.224 45.68C116.731 44.1013 114.875 43.312 112.656 43.312C110.48 43.312 108.624 44.1013 107.088 45.68C105.595 47.2587 104.848 49.4133 104.848 52.144C104.848 54.8747 105.595 57.0293 107.088 58.608C108.624 60.1867 110.48 60.976 112.656 60.976C114.832 60.976 116.688 60.1867 118.224 58.608C119.76 56.9867 120.528 54.8107 120.528 52.08ZM135.23 52.08C135.23 48.4107 135.912 45.1893 137.278 42.416C138.686 39.6427 140.584 37.5093 142.974 36.016C145.363 34.5227 148.03 33.776 150.974 33.776C153.491 33.776 155.688 34.288 157.566 35.312C159.486 36.336 160.958 37.68 161.982 39.344V34.288H172.926V70H161.982V64.944C160.915 66.608 159.422 67.952 157.502 68.976C155.624 70 153.427 70.512 150.91 70.512C148.008 70.512 145.363 69.7653 142.974 68.272C140.584 66.736 138.686 64.5813 137.278 61.808C135.912 58.992 135.23 55.7493 135.23 52.08ZM161.982 52.144C161.982 49.4133 161.214 47.2587 159.678 45.68C158.184 44.1013 156.35 43.312 154.174 43.312C151.998 43.312 150.142 44.1013 148.606 45.68C147.112 47.216 146.366 49.3493 146.366 52.08C146.366 54.8107 147.112 56.9867 148.606 58.608C150.142 60.1867 151.998 60.976 154.174 60.976C156.35 60.976 158.184 60.1867 159.678 58.608C161.214 57.0293 161.982 54.8747 161.982 52.144ZM202.667 70L191.787 55.024V70H180.843V22.64H191.787V48.816L202.603 34.288H216.107L201.259 52.208L216.235 70H202.667ZM234.934 70.512C231.819 70.512 229.046 69.9787 226.614 68.912C224.182 67.8453 222.262 66.3947 220.854 64.56C219.446 62.6827 218.656 60.592 218.486 58.288H229.302C229.43 59.5253 230.006 60.528 231.03 61.296C232.054 62.064 233.312 62.448 234.806 62.448C236.171 62.448 237.216 62.192 237.942 61.68C238.71 61.1253 239.094 60.4213 239.094 59.568C239.094 58.544 238.56 57.7973 237.494 57.328C236.427 56.816 234.699 56.2613 232.31 55.664C229.75 55.0667 227.616 54.448 225.91 53.808C224.203 53.1253 222.731 52.08 221.494 50.672C220.256 49.2213 219.638 47.28 219.638 44.848C219.638 42.8 220.192 40.944 221.302 39.28C222.454 37.5733 224.118 36.2293 226.294 35.248C228.512 34.2667 231.136 33.776 234.166 33.776C238.646 33.776 242.166 34.8853 244.726 37.104C247.328 39.3227 248.822 42.2667 249.206 45.936H239.094C238.923 44.6987 238.368 43.7173 237.43 42.992C236.534 42.2667 235.339 41.904 233.846 41.904C232.566 41.904 231.584 42.16 230.902 42.672C230.219 43.1413 229.878 43.8027 229.878 44.656C229.878 45.68 230.411 46.448 231.478 46.96C232.587 47.472 234.294 47.984 236.598 48.496C239.243 49.1787 241.398 49.8613 243.062 50.544C244.726 51.184 246.176 52.2507 247.414 53.744C248.694 55.1947 249.355 57.1573 249.398 59.632C249.398 61.7227 248.8 63.6 247.606 65.264C246.454 66.8853 244.768 68.1653 242.55 69.104C240.374 70.0427 237.835 70.512 234.934 70.512ZM267.037 22.64V70H256.093V22.64H267.037ZM272.792 52.08C272.792 48.4107 273.475 45.1893 274.84 42.416C276.248 39.6427 278.147 37.5093 280.536 36.016C282.925 34.5227 285.592 33.776 288.536 33.776C291.053 33.776 293.251 34.288 295.128 35.312C297.048 36.336 298.52 37.68 299.544 39.344V34.288H310.488V70H299.544V64.944C298.477 66.608 296.984 67.952 295.064 68.976C293.187 70 290.989 70.512 288.472 70.512C285.571 70.512 282.925 69.7653 280.536 68.272C278.147 66.736 276.248 64.5813 274.84 61.808C273.475 58.992 272.792 55.7493 272.792 52.08ZM299.544 52.144C299.544 49.4133 298.776 47.2587 297.24 45.68C295.747 44.1013 293.912 43.312 291.736 43.312C289.56 43.312 287.704 44.1013 286.168 45.68C284.675 47.216 283.928 49.3493 283.928 52.08C283.928 54.8107 284.675 56.9867 286.168 58.608C287.704 60.1867 289.56 60.976 291.736 60.976C293.912 60.976 295.747 60.1867 297.24 58.608C298.776 57.0293 299.544 54.8747 299.544 52.144ZM323.526 70.512C321.606 70.512 320.027 69.9573 318.79 68.848C317.595 67.696 316.998 66.288 316.998 64.624C316.998 62.9173 317.595 61.488 318.79 60.336C320.027 59.184 321.606 58.608 323.526 58.608C325.403 58.608 326.939 59.184 328.134 60.336C329.371 61.488 329.99 62.9173 329.99 64.624C329.99 66.288 329.371 67.696 328.134 68.848C326.939 69.9573 325.403 70.512 323.526 70.512ZM350.996 70.512C347.881 70.512 345.108 69.9787 342.676 68.912C340.244 67.8453 338.324 66.3947 336.916 64.56C335.508 62.6827 334.719 60.592 334.548 58.288H345.364C345.492 59.5253 346.068 60.528 347.092 61.296C348.116 62.064 349.375 62.448 350.868 62.448C352.233 62.448 353.279 62.192 354.004 61.68C354.772 61.1253 355.156 60.4213 355.156 59.568C355.156 58.544 354.623 57.7973 353.556 57.328C352.489 56.816 350.761 56.2613 348.372 55.664C345.812 55.0667 343.679 54.448 341.972 53.808C340.265 53.1253 338.793 52.08 337.556 50.672C336.319 49.2213 335.7 47.28 335.7 44.848C335.7 42.8 336.255 40.944 337.364 39.28C338.516 37.5733 340.18 36.2293 342.356 35.248C344.575 34.2667 347.199 33.776 350.228 33.776C354.708 33.776 358.228 34.8853 360.788 37.104C363.391 39.3227 364.884 42.2667 365.268 45.936H355.156C354.985 44.6987 354.431 43.7173 353.492 42.992C352.596 42.2667 351.401 41.904 349.908 41.904C348.628 41.904 347.647 42.16 346.964 42.672C346.281 43.1413 345.94 43.8027 345.94 44.656C345.94 45.68 346.473 46.448 347.54 46.96C348.649 47.472 350.356 47.984 352.66 48.496C355.305 49.1787 357.46 49.8613 359.124 50.544C360.788 51.184 362.239 52.2507 363.476 53.744C364.756 55.1947 365.417 57.1573 365.46 59.632C365.46 61.7227 364.863 63.6 363.668 65.264C362.516 66.8853 360.831 68.1653 358.612 69.104C356.436 70.0427 353.897 70.512 350.996 70.512ZM394.108 33.904C398.204 33.904 401.489 35.2693 403.964 38C406.438 40.688 407.676 44.4 407.676 49.136V70H396.796V50.608C396.796 48.2187 396.177 46.3627 394.94 45.04C393.702 43.7173 392.038 43.056 389.948 43.056C387.857 43.056 386.193 43.7173 384.956 45.04C383.718 46.3627 383.1 48.2187 383.1 50.608V70H372.156V22.64H383.1V39.088C384.209 37.5093 385.724 36.2507 387.644 35.312C389.564 34.3733 391.718 33.904 394.108 33.904Z"/>
    <circle fill="url(#paint0_linear_10_2)" r="30.5" cy="48.4999" cx="43.1338"/>
    <circle fill="url(#paint1_linear_10_2)" transform="rotate(45 43.1333 48.5)" r="30.5" cy="48.5" cx="43.1333"/>
    <path fill="white" d="M37.219 61.4562C35.7942 57.2793 34.3237 53.113 32.8076 48.9575C31.2991 44.7638 29.8077 40.5934 28.3334 36.4462L28.055 35.5565C27.7934 34.9085 27.8853 34.4504 28.3306 34.1824C28.8254 33.8846 29.4266 33.7074 30.1342 33.6508C30.8912 33.5644 31.5245 33.5524 32.0341 33.6149C33.194 33.6887 34.3367 33.9576 35.4619 34.4215C36.629 34.8938 37.3946 35.5239 37.7587 36.3116C37.8383 36.5658 37.9102 36.8582 37.9744 37.1887C38.0882 37.4894 38.2228 37.7944 38.3783 38.1035C38.9694 39.9294 39.5813 41.7595 40.2142 43.5938C40.8965 45.3982 41.575 47.2218 42.2497 49.0645L43.4093 52.3941C44.1483 54.5673 44.9081 56.7447 45.6889 58.9263C46.4696 61.1079 47.2674 63.3127 48.0824 65.5409C48.1772 65.7187 48.2739 65.9962 48.3723 66.3733C48.4784 66.7122 48.4589 67.0259 48.314 67.3145C47.9482 67.8367 47.383 68.1601 46.6183 68.2847C45.8613 68.3711 45.1196 68.3812 44.3932 68.3149C43.2256 68.2792 42.0582 68.0253 40.8911 67.553C39.7317 67.0425 38.9909 66.3976 38.6685 65.6182C38.3651 64.9618 38.0864 64.2904 37.8324 63.6042C37.6279 62.8882 37.4235 62.1722 37.219 61.4562Z"/>
    <path fill="white" d="M49.1825 55.5109C47.7577 51.3339 46.2872 47.1677 44.7711 43.0122C43.2626 38.8185 41.7712 34.6481 40.2969 30.5009L40.0185 29.6112C39.7569 28.9632 39.8488 28.5051 40.2941 28.2371C40.7889 27.9393 41.3901 27.7621 42.0977 27.7055C42.8547 27.6191 43.488 27.6071 43.9976 27.6696C45.1575 27.7434 46.3002 28.0123 47.4254 28.4762C48.5925 28.9485 49.3581 29.5786 49.7222 30.3663C49.8018 30.6205 49.8737 30.9129 49.9379 31.2434C50.0517 31.5441 50.1863 31.8491 50.3418 32.1582C50.9329 33.9841 51.5448 35.8142 52.1777 37.6485C52.86 39.4529 53.5385 41.2765 54.2132 43.1192L55.3728 46.4488C56.1118 48.622 56.8716 50.7994 57.6524 52.981C58.4331 55.1626 59.2309 57.3674 60.0459 59.5956C60.1407 59.7734 60.2374 60.0509 60.3358 60.428C60.4419 60.7669 60.4224 61.0806 60.2775 61.3692C59.9117 61.8914 59.3465 62.2148 58.5818 62.3394C57.8248 62.4258 57.0831 62.4359 56.3567 62.3696C55.1891 62.3339 54.0217 62.08 52.8546 61.6077C51.6952 61.0972 50.9543 60.4523 50.632 59.6729C50.3286 59.0165 50.0499 58.3451 49.7959 57.6589C49.5914 56.9429 49.387 56.2269 49.1825 55.5109Z"/>
  </g>
</svg>

<svg viewBox="56.531 96.03 395.273 61.522" xmlns="http://www.w3.org/2000/svg"><defs><linearGradient gradientUnits="userSpaceOnUse" y2="79" x2="43.134" y1="18" x1="43.134" id="b"><stop stop-color="#1DFFF1"/><stop stop-color="#860DFF" offset="1"/></linearGradient><linearGradient gradientUnits="userSpaceOnUse" y2="79" x2="43.133" y1="18" x1="43.133" id="c"><stop stop-color="#1DFFF1"/><stop stop-color="#860DFF" offset="1"/></linearGradient><clipPath id="a"><path fill="#fff" d="M0 0h423v98H0z"/></clipPath></defs><g clip-path="url(#a)" transform="translate(43.815 78.26)"><path style="fill:#262626" d="M104.912 39.344c1.024-1.664 2.496-3.008 4.416-4.032 1.92-1.024 4.117-1.536 6.592-1.536 2.944 0 5.611.747 8 2.24 2.389 1.493 4.267 3.627 5.632 6.4 1.408 2.773 2.112 5.995 2.112 9.664 0 3.67-.704 6.912-2.112 9.728-1.365 2.773-3.243 4.928-5.632 6.464-2.389 1.493-5.056 2.24-8 2.24-2.517 0-4.715-.49-6.592-1.472-1.877-1.024-3.349-2.368-4.416-4.032V70H93.968V22.64h10.944v16.704Zm15.616 12.736c0-2.73-.768-4.864-2.304-6.4-1.493-1.579-3.349-2.368-5.568-2.368-2.176 0-4.032.79-5.568 2.368-1.493 1.579-2.24 3.733-2.24 6.464 0 2.73.747 4.885 2.24 6.464 1.536 1.579 3.392 2.368 5.568 2.368 2.176 0 4.032-.79 5.568-2.368 1.536-1.621 2.304-3.797 2.304-6.528Zm14.702 0c0-3.67.682-6.89 2.048-9.664 1.408-2.773 3.306-4.907 5.696-6.4 2.389-1.493 5.056-2.24 8-2.24 2.517 0 4.714.512 6.592 1.536 1.92 1.024 3.392 2.368 4.416 4.032v-5.056h10.944V70h-10.944v-5.056c-1.067 1.664-2.56 3.008-4.48 4.032-1.878 1.024-4.075 1.536-6.592 1.536-2.902 0-5.547-.747-7.936-2.24-2.39-1.536-4.288-3.69-5.696-6.464-1.366-2.816-2.048-6.059-2.048-9.728Zm26.752.064c0-2.73-.768-4.885-2.304-6.464-1.494-1.579-3.328-2.368-5.504-2.368-2.176 0-4.032.79-5.568 2.368-1.494 1.536-2.24 3.67-2.24 6.4 0 2.73.746 4.907 2.24 6.528 1.536 1.579 3.392 2.368 5.568 2.368 2.176 0 4.01-.79 5.504-2.368 1.536-1.579 2.304-3.733 2.304-6.464ZM202.667 70l-10.88-14.976V70h-10.944V22.64h10.944v26.176l10.816-14.528h13.504l-14.848 17.92L216.235 70h-13.568Zm32.267.512c-3.115 0-5.888-.533-8.32-1.6-2.432-1.067-4.352-2.517-5.76-4.352-1.408-1.877-2.198-3.968-2.368-6.272h10.816c.128 1.237.704 2.24 1.728 3.008 1.024.768 2.282 1.152 3.776 1.152 1.365 0 2.41-.256 3.136-.768.768-.555 1.152-1.259 1.152-2.112 0-1.024-.534-1.77-1.6-2.24-1.067-.512-2.795-1.067-5.184-1.664-2.56-.597-4.694-1.216-6.4-1.856a11.486 11.486 0 0 1-4.416-3.136c-1.238-1.45-1.856-3.392-1.856-5.824 0-2.048.554-3.904 1.664-5.568 1.152-1.707 2.816-3.05 4.992-4.032 2.218-.981 4.842-1.472 7.872-1.472 4.48 0 8 1.11 10.56 3.328 2.602 2.219 4.096 5.163 4.48 8.832h-10.112c-.171-1.237-.726-2.219-1.664-2.944-.896-.725-2.091-1.088-3.584-1.088-1.28 0-2.262.256-2.944.768-.683.47-1.024 1.13-1.024 1.984 0 1.024.533 1.792 1.6 2.304 1.109.512 2.816 1.024 5.12 1.536 2.645.683 4.8 1.365 6.464 2.048 1.664.64 3.114 1.707 4.352 3.2 1.28 1.45 1.941 3.413 1.984 5.888 0 2.09-.598 3.968-1.792 5.632-1.152 1.621-2.838 2.901-5.056 3.84-2.176.939-4.715 1.408-7.616 1.408Zm32.103-47.872V70h-10.944V22.64h10.944Zm5.755 29.44c0-3.67.683-6.89 2.048-9.664 1.408-2.773 3.307-4.907 5.696-6.4 2.389-1.493 5.056-2.24 8-2.24 2.517 0 4.715.512 6.592 1.536 1.92 1.024 3.392 2.368 4.416 4.032v-5.056h10.944V70h-10.944v-5.056c-1.067 1.664-2.56 3.008-4.48 4.032-1.877 1.024-4.075 1.536-6.592 1.536-2.901 0-5.547-.747-7.936-2.24-2.389-1.536-4.288-3.69-5.696-6.464-1.365-2.816-2.048-6.059-2.048-9.728Zm26.752.064c0-2.73-.768-4.885-2.304-6.464-1.493-1.579-3.328-2.368-5.504-2.368-2.176 0-4.032.79-5.568 2.368-1.493 1.536-2.24 3.67-2.24 6.4 0 2.73.747 4.907 2.24 6.528 1.536 1.579 3.392 2.368 5.568 2.368 2.176 0 4.011-.79 5.504-2.368 1.536-1.579 2.304-3.733 2.304-6.464Zm23.982 18.368c-1.92 0-3.499-.555-4.736-1.664-1.195-1.152-1.792-2.56-1.792-4.224 0-1.707.597-3.136 1.792-4.288 1.237-1.152 2.816-1.728 4.736-1.728 1.877 0 3.413.576 4.608 1.728 1.237 1.152 1.856 2.581 1.856 4.288 0 1.664-.619 3.072-1.856 4.224-1.195 1.11-2.731 1.664-4.608 1.664Zm27.47 0c-3.115 0-5.888-.533-8.32-1.6-2.432-1.067-4.352-2.517-5.76-4.352-1.408-1.877-2.197-3.968-2.368-6.272h10.816c.128 1.237.704 2.24 1.728 3.008 1.024.768 2.283 1.152 3.776 1.152 1.365 0 2.411-.256 3.136-.768.768-.555 1.152-1.259 1.152-2.112 0-1.024-.533-1.77-1.6-2.24-1.067-.512-2.795-1.067-5.184-1.664-2.56-.597-4.693-1.216-6.4-1.856a11.486 11.486 0 0 1-4.416-3.136c-1.237-1.45-1.856-3.392-1.856-5.824 0-2.048.555-3.904 1.664-5.568 1.152-1.707 2.816-3.05 4.992-4.032 2.219-.981 4.843-1.472 7.872-1.472 4.48 0 8 1.11 10.56 3.328 2.603 2.219 4.096 5.163 4.48 8.832h-10.112c-.171-1.237-.725-2.219-1.664-2.944-.896-.725-2.091-1.088-3.584-1.088-1.28 0-2.261.256-2.944.768-.683.47-1.024 1.13-1.024 1.984 0 1.024.533 1.792 1.6 2.304 1.109.512 2.816 1.024 5.12 1.536 2.645.683 4.8 1.365 6.464 2.048 1.664.64 3.115 1.707 4.352 3.2 1.28 1.45 1.941 3.413 1.984 5.888 0 2.09-.597 3.968-1.792 5.632-1.152 1.621-2.837 2.901-5.056 3.84-2.176.939-4.715 1.408-7.616 1.408Zm43.112-36.608c4.096 0 7.381 1.365 9.856 4.096 2.474 2.688 3.712 6.4 3.712 11.136V70h-10.88V50.608c0-2.39-.619-4.245-1.856-5.568-1.238-1.323-2.902-1.984-4.992-1.984-2.091 0-3.755.661-4.992 1.984-1.238 1.323-1.856 3.179-1.856 5.568V70h-10.944V22.64H383.1v16.448c1.109-1.579 2.624-2.837 4.544-3.776 1.92-.939 4.074-1.408 6.464-1.408Z"/><circle fill="url(#b)" r="30.5" cy="48.5" cx="43.134"/><circle fill="url(#c)" transform="rotate(45 43.133 48.5)" r="30.5" cy="48.5" cx="43.133"/><path fill="#fff" d="M37.219 61.456a628.22 628.22 0 0 0-4.411-12.498c-1.509-4.194-3-8.365-4.475-12.512l-.278-.89c-.262-.648-.17-1.106.276-1.374.494-.297 1.096-.475 1.803-.531.757-.087 1.39-.099 1.9-.036 1.16.074 2.303.343 3.428.806 1.167.473 1.933 1.103 2.297 1.89.08.255.151.547.215.878.114.3.249.605.404.914a302.107 302.107 0 0 0 1.836 5.49 554.58 554.58 0 0 1 2.036 5.471l1.16 3.33a434.78 434.78 0 0 0 2.279 6.532c.78 2.182 1.578 4.387 2.393 6.615.095.178.192.455.29.832.106.34.087.653-.058.941-.366.523-.931.846-1.696.97-.757.087-1.498.097-2.225.03-1.167-.035-2.335-.289-3.502-.761-1.16-.51-1.9-1.155-2.222-1.935a27.794 27.794 0 0 1-.837-2.014l-.613-2.148ZM49.182 55.51a627.995 627.995 0 0 0-4.41-12.498c-1.51-4.194-3-8.364-4.475-12.511l-.278-.89c-.262-.648-.17-1.106.275-1.374.495-.298 1.096-.475 1.804-.531.757-.087 1.39-.099 1.9-.036 1.16.073 2.302.342 3.427.806 1.168.473 1.933 1.103 2.297 1.89.08.255.152.547.216.877.114.301.248.606.404.915a302.107 302.107 0 0 0 1.836 5.49 554.58 554.58 0 0 1 2.035 5.471l1.16 3.33a434.78 434.78 0 0 0 2.28 6.532c.78 2.182 1.578 4.386 2.393 6.615.095.177.191.455.29.832.106.339.086.653-.058.941-.366.522-.931.846-1.696.97-.757.087-1.499.097-2.225.03-1.168-.035-2.335-.289-3.502-.761-1.16-.51-1.9-1.156-2.223-1.935a27.794 27.794 0 0 1-.836-2.014l-.614-2.148Z"/></g></svg>
